X:1
T:Title
%%score { ( 1 3 ) | ( 2 4 ) }
L:1/8
M:4/4
K:C
V:1 treble nm="Grand Piano"
V:3 treble 
V:2 bass 
V:4 bass 
V:1
 z4 z2[Q:1/4=100] G2 | c2 E>F G2 C>D | E2 [G,E]2 [G,CE]2 E>F | G2 G>G G2 [CEG]2 | %4
[M:3/4] [B,FG]4 [B,DG]2 |[M:1/4] G2 |[M:4/4] c2 E>F G2 C>D | E2 E2 [CE]2 E>^F | [DG]2 G>A B2 A2 | %9
[M:3/4] A4 [G,B,G]2 |[M:1/4] G2 |[M:4/4] G2 G>G [F_B]2 [FB]>[FB] | [Gc]2 [Gc]2 [_EG]2 [EG]2 | %13
 [G_e]2 z2 z4 |[M:3/4] _e4 d2 |[M:1/4] c2 |[M:4/4] _B2 [G_e]>[Ge] [GB]2 G>G | %17
 [^FA]2 [Fc]>[Fc] [_B,G_B]2 [B,GB]2 | [Gd]2 [Gd]>[Gd] [^Fd]2 [Fd]2 |[M:3/4] [^Fd]4 G2 |[M:1/4] G2 | %21
[M:4/4] c2 E>F G2 C>D | z4 z2 E2 | G2 G>G G2 [Ec]2 |[M:3/4] [Fc]4 [DFB]2 |[M:1/4] G2 | %26
[M:4/4] c2 c>c c2 c>c | c2 c2 c2 cd | %28
 e2 c>c [^Fe]2 [=Fd]2[Q:1/4=98][Q:1/4=97][Q:1/4=95][Q:1/4=94][Q:1/4=92][Q:1/4=91][Q:1/4=89][Q:1/4=88][Q:1/4=86][Q:1/4=84][Q:1/4=83][Q:1/4=81][Q:1/4=80][Q:1/4=78][Q:1/4=77] | %29
 [Fd]6 [Ec]2 |] %30
V:2
 z4 z2 G,2 | C2 E,>F, G,2 C,>D, | E,2 C,2 G,,2 C,>D, | [E,G,C]2 [C,E,C]>[D,F,C] [E,G,C]2 C,2 | %4
[M:3/4] D,4 G,,2 |[M:1/4] G,2 |[M:4/4] C2 E,>F, G,2 C,>D, | E,2 [C,G,]2 [G,,G,]2 [C,G,C]2 | %8
 [B,,G,]2 [E,G,^C]>[E,G,C] [D,G,D]2 [D,G,=C]2 |[M:3/4] [D,^F,C]4 G,,2 |[M:1/4] G,2 | %11
[M:4/4] [_E,_B,]2 [E,B,_E]>[E,B,E] [D,B,]2 [D,B,]>[D,B,] | [_E,_B,]2 [E,B,]2 [E,B,]2 [E,B,]2 | %13
 .[C,C]2 [_E,C][F,C][K:treble] [G,CG]2 [A,C^F]2 |[M:3/4] [_B,G]4 [B,F]2 |[M:1/4] [^G,F]2 | %16
[M:4/4] [G,_EG]2[K:bass] [_E,_B,]>[E,B,] [E,E]2 [E,B,]>[E,B,] | %17
 [_E,C]2 [E,A,]>[E,A,] E,2 z z/[K:treble] c/ | [D,_B,]2 [D,B,]>[D,B,] [D,A,]2 [D,B,]2 | %19
[M:3/4] [D,C]4[K:treble] [G,B,F]2 |[M:1/4] G,2 |[M:4/4] C2[K:bass] E,>F, G,2 C,>D, | %22
 E,2 C,2 G,,2 C,>D, | [E,G,C]2 [C,E,C]>[D,F,C] [E,G,C]2 [C,G,]2 |[M:3/4] [D,G,]4 G,,2 | %25
[M:1/4] G,2 |[M:4/4] C2 [E,C]>[F,CD][K:treble] [G,CE]2 [_B,CE]>[B,CE] | %27
 [A,CF]2 [^G,_E^F]2 [=G,=EG]2[K:bass] [^F,C]2 | [G,CG]2 [A,CE]>[A,CE] [D,A,]2 [D,C]2 | %29
 [G,B,]6 [C,C]2 |] %30
V:3
 x8 | x8 | z4 z2 [G,C]2 | x8 |[M:3/4] x6 |[M:1/4] x2 |[M:4/4] x8 | x8 | x8 |[M:3/4] x6 | %10
[M:1/4] x2 |[M:4/4] x8 | x8 | z D,[G_e][Ge] e2 e2 |[M:3/4] x6 |[M:1/4] z D |[M:4/4] x8 | x8 | x8 | %19
[M:3/4] x6 |[M:1/4] x2 |[M:4/4] x8 | E2 [G,E]2 [G,CE]2 [G,C]->[G,CF] | x8 |[M:3/4] x6 |[M:1/4] x2 | %26
[M:4/4] x8 | z4 z2 A2 | x8 | x8 |] %30
V:4
 x8 | x8 | x8 | x8 |[M:3/4] x6 |[M:1/4] x2 |[M:4/4] x8 | x8 | x8 |[M:3/4] x6 |[M:1/4] x2 | %11
[M:4/4] x8 | x8 | x4[K:treble] x4 |[M:3/4] x6 |[M:1/4] C z |[M:4/4] x2[K:bass] x6 | %17
 z4 z2 _E,2[K:treble] | x8 |[M:3/4] x4[K:treble] x2 |[M:1/4] x2 |[M:4/4] x2[K:bass] x6 | x8 | x8 | %24
[M:3/4] x6 |[M:1/4] x2 |[M:4/4] x4[K:treble] x4 | x6[K:bass] x2 | x8 | x8 |] %30

